X:1
T:On the Hills of Manchuria (For Brass Quartet) 
T:Composed by Ilya Shatrov Arranged by Jose Arvizu 
C:Ilya Shatrov
%%score 1 2 3 4
L:1/8
Q:1/4=160
M:3/4
K:F
V:1 bass nm="Trombone 1"
V:2 bass nm="Trombone 2" snm="Tbn. 2"
V:3 bass nm="Euphonium" snm="Euph."
V:4 bass nm="Tuba" snm="Tba."
V:1
 z6 | z6 | z6 | z6 |!mf! A,6 | F,4 G,2 | A,6 | z6 | _A,2 =A,2 _D2 | F4 E2 | D6 | z6 | A,2 D2 F2 | %13
 _D4 =D2 | E2 D2 B,2 | E4 D2 | A,2 D2 E2 | F4 E2 | D6 | z6 |!mf! A,6 | F,4 G,2 | A,6 | z6 | %24
 _A,2 =A,2 _D2 | F4 E2 | D6 | z6 | A,2 D2 F2 | _D4 =D2 | E2 D2 B,2 | E4 D2 | A,2 D2 E2 | F4 E2 | %34
 D6 | z6 |!mf! D4 _E2 | D4 C2 | C4 B,2 | B,2 A,2 B,2 | C4 D2 | C4 B,2 | B,2 A,2 _A,2 | A,4 z2 | %44
 D,2 F,2 A,2 | D2 F2 E2 | D2 B,2 G,2 | D4 B,2 | A,2 B,2 A,2 | E,4 F,2 | D,4 z2 | z6 | A,6- | %53
 A,2 F,2 G,2 | A,6- | A,4 B,2 | A,2 _D2 E2 | F4 E2 | D6- | D4 D2 | A,2 D2 F2 | _D4 =D2 | %62
 E2 D2 B,2 | E4 D2 | A,2 D2 E2 | F4 E2 | D6 | z2!mf!{/B,} A,_A, =A,B, | A,3 E, E,2- | E,2 F,2 G,2 | %70
 A,4 z2 | z2!f!{/D} C_C =CD | C3 G, G,2- | G,2 A,2 B,2 | C6- | C2!<(! C2 _D2 | D3!<)!!>(! A,3 | %77
 A,2 _A,2 =A,2 | C3 B,3 | z2 A,2 G,2 | F,4 A,2 | E,4 A,2!>)! |!mf! D,4 z2 | z6 |!mf! A,6 | %85
 F,4 G,2 | A,6- | A,6 | _A,2 =A,2 _D2 | F4 E2 | D6 | z6 | A,2 D2 F2 | _D4 =D2 | E2 D2 B,2 | E4 D2 | %96
 A,2 D2 E2 | F4 E2 | D6 | z6 |] %100
V:2
 z6 | z6 | z6 | z6 |!p! D,6 |!<(! A,,6 | _D,6!<)! |!mf! E,4 D,2 | _D,6 | F,2 E,2 _D,2 | D,4 B,,2 | %11
 A,,2 D,2 E,2 | D,6 | F,4 A,,2 | G,,2 B,,2 D,2 | G,6 | D,2 E,2 F,2 | A,4 G,2 | F,6 | A,,2 D,2 E,2 | %20
!p! D,6 |!<(! A,,6 | _D,6!<)! |!mf! E,4 D,2 | _D,6 | F,2 E,2 _D,2 | D,4 B,,2 | A,,2 D,2 E,2 | D,6 | %29
 F,4 A,,2 | G,,2 B,,2 D,2 | G,6 | D,2 E,2 F,2 | A,4 G,2 | D,4!<(! A,,2 | D,2 E,2 F,2!<)! | %36
!mf! _G,2 D,2 C,2 | A,,4 _G,2 | G,2 D,2 B,,2 | G,,4 D,2 | E,2 C,2 B,,2 | G,,4 E,2 | F,2 C,2 D,2 | %43
 F,4 E,2 | A,,2 D,2 F,2 | A,4 F,2 | G,2 D,2 B,,2 | E,6 | A,,6 | A,,2 _C,2 _D,2 | D,4 A,,2 | %51
 D,2 z4 |!mf! D,6 | A,,6 | _D,6 | E,4 D,2 | _D,6 | F,2 E,2 _D,2 | D,4 B,,2 | A,,4 B,,2 | A,,6 | %61
 D,4 B,,2 | G,,2 B,,2 D,2 | G,4 F,2 | D,2 E,2 F,2 | A,4 G,2 | F,2 D,2 A,,2 | D,2 z4 | %68
!mf! .E,2 ._D,2 .B,,2 | .A,,2 ._C,2 ._D,2 | .D,2 .F,2 .D,2 | .A,,2 z4 | E,2 C,2 B,,2 | %73
 G,,2 C,2 E,2 | F,2 C,2 A,,2 | C,2 F,2 E,2 | F,6 | D,6 | B,,6 | G,,6 | D,2 z2 z2 | _D,2 z2 z2 | %82
 A,,2 z2 .A,,2 | .D,2 z4 |!p! D,6 |!<(! A,,6 | _D,6!<)! |!mf! E,4 D,2 | _D,6 | F,2 E,2 _D,2 | %90
 D,4 B,,2 | A,,2 D,2 E,2 | D,6 | F,4 A,,2 | G,,2 B,,2 D,2 | G,6 | F,2 D,2 B,,2 | A,,4 _D,2 | %98
 D,2 z2 .A,,2 | .!^!D,2 z4 |] %100
V:3
!mf! D,2 A,2 A,2 | A,,2 A,2 A,2 | D,2 A,2 A,2 | A,,2 A,2 A,2 | D,2 A,2 A,2 | A,,2 A,2 A,2 | %6
 _D,2 G,2 G,2 | A,,2 G,2 G,2 | A,,2 G,2 G,2 | _D,2 G,2 G,2 | D,2 A,2 A,2 | A,,2 A,2 G,2 | %12
 D,2 A,2 A,2 | A,,2 A,2 A,2 | B,,2 B,2 B,2 | G,,2 B,2 B,2 | A,,2 A,2 A,2 | A,,2 G,2 G,2 | %18
 D,2 A,2 A,2 | F,2 D,2 _D,2 | D,2 A,2 A,2 | A,,2 A,2 A,2 | _D,2 G,2 G,2 | A,,2 G,2 G,2 | %24
 A,,2 G,2 G,2 | _D,2 G,2 G,2 | D,2 A,2 A,2 | A,,2 A,2 G,2 | D,2 A,2 A,2 | A,,2 A,2 A,2 | %30
 B,,2 B,2 B,2 | G,,2 B,2 B,2 | A,,2 A,2 A,2 | A,,2 G,2 G,2 | D,2 A,2 A,2 | A,2 z4 | %36
!mp! D,2 A,2 A,2 | A,,2 A,2 A,2 | G,,2 G,2 B,2 | B,,2 B,2 B,2 | C,2 B,2 B,2 | E,2 B,2 B,2 | %42
 F,2 C2 C2 | C,2 A,2 _D,2 | D,2 A,2 A,2 | A,,2 A,2 A,2 | G,,2 B,2 B,2 | D,2 B,2 B,2 | %48
 A,,2 A,2 A,2 | A,,2 G,2 G,2 | D,2 A,2 A,2 | A,2 z4 | D,2 A,2 A,2 | A,,2 A,2 A,2 | _D,2 G,2 G,2 | %55
 A,,2 G,2 G,2 | A,,2 G,2 G,2 | _D,2 G,2 G,2 | D,2 A,2 A,2 | A,,2 A,2 G,2 | D,2 A,2 A,2 | %61
 A,,2 A,2 A,2 | B,,2 B,2 B,2 | G,,2 B,2 B,2 | A,,2 A,2 A,2 | A,,2 G,2 G,2 | D,2 A,2 A,2 | A,2 z4 | %68
!mp! A,,2 .G,2 .G,2 | _D,2 .G,2 .G,2 | D,2 .A,2 .A,2 | .A,2 z4 | C,2 G,2 G,2 | G,,2 G,2 G,2 | %74
 F,2 A,2 A,2 | C,2 A,2 G,2 | D,2 A,2 A,2 | A,,2 A,2 A,2 | G,,2 B,2 B,2 | D,2 B,2 B,2 | %80
 A,,2 A,2 A,2 | A,,2 G,2 G,2 | D,2 .A,2 .A,2 | .A,2 z4 |!p! D,2 A,2 A,2 | A,,2 A,2 A,2 | %86
 _D,2 G,2 G,2 | A,,2 G,2 G,2 | A,,2 G,2 G,2 | _D,2 G,2 G,2 | D,2 A,2 A,2 | A,,2 A,2 G,2 | %92
 D,2 A,2 A,2 | A,,2 A,2 A,2 | B,,2 B,2 B,2 | G,,2 G,2 G,2 | A,,2 A,2 F,2 | A,,2 G,2 E,2 | %98
 .D,2 .F,2 ._D,2 | .!^!D,2 z4 |] %100
V:4
!mf! D,,2 F,,2 F,,2 | A,,,2 F,,2 F,,2 | D,,2 F,,2 F,,2 | A,,,2 F,,2 F,,2 | D,,2 F,,2 F,,2 | %5
 A,,,2 F,,2 F,,2 | _D,,2 E,,2 E,,2 | A,,,2 E,,2 E,,2 | A,,,2 E,,2 E,,2 | _D,,2 E,,2 E,,2 | %10
 D,,2 F,,2 F,,2 | A,,,2 F,,2 E,,2 | D,,2 F,,2 F,,2 | A,,,2 F,,2 F,,2 | B,,,2 G,,2 G,,2 | %15
 G,,,2 G,,2 G,,2 | A,,,2 F,,2 F,,2 | A,,,2 E,,2 E,,2 | D,,2 F,,2 F,,2 | F,,2 D,,2 _D,,2 | %20
 D,,2 F,,2 F,,2 | A,,,2 F,,2 F,,2 | _D,,2 E,,2 E,,2 | A,,,2 E,,2 E,,2 | A,,,2 E,,2 E,,2 | %25
 _D,,2 E,,2 E,,2 | D,,2 F,,2 F,,2 | A,,,2 F,,2 E,,2 | D,,2 F,,2 F,,2 | A,,,2 F,,2 F,,2 | %30
 B,,,2 G,,2 G,,2 | G,,,2 G,,2 G,,2 | A,,,2 F,,2 F,,2 | A,,,2 E,,2 E,,2 | D,,2 F,,2 F,,2 | F,,2 z4 | %36
!mp! D,,2 _G,,2 G,,2 | A,,,2 _G,,2 G,,2 | G,,,2 D,,2 G,,2 | B,,,2 G,,2 G,,2 | C,,2 G,,2 G,,2 | %41
 E,,2 G,,2 G,,2 | F,,2 A,,2 A,,2 | C,,2 F,,2 _D,,2 | D,,2 F,,2 F,,2 | A,,,2 F,,2 F,,2 | %46
 G,,,2 G,,2 G,,2 | D,,2 G,,2 G,,2 | A,,,2 F,,2 F,,2 | A,,,2 E,,2 E,,2 | D,,2 F,,2 F,,2 | F,,2 z4 | %52
 D,,2 F,,2 F,,2 | A,,,2 F,,2 F,,2 | _D,,2 E,,2 E,,2 | A,,,2 E,,2 E,,2 | A,,,2 E,,2 E,,2 | %57
 _D,,2 E,,2 E,,2 | D,,2 F,,2 F,,2 | A,,,2 F,,2 E,,2 | D,,2 F,,2 F,,2 | A,,,2 F,,2 F,,2 | %62
 B,,,2 G,,2 G,,2 | G,,,2 G,,2 G,,2 | A,,,2 F,,2 F,,2 | A,,,2 E,,2 E,,2 | D,,2 F,,2 F,,2 | F,,2 z4 | %68
!mp! A,,,2 .E,,2 .E,,2 | _D,,2 .E,,2 .E,,2 | D,,2 .F,,2 .F,,2 | .F,,2 z4 | C,,2 E,,2 E,,2 | %73
 G,,,2 E,,2 E,,2 | F,,2 F,,2 F,,2 | C,,2 F,,2 E,,2 | D,,2 F,,2 F,,2 | A,,,2 F,,2 F,,2 | %78
 G,,,2 G,,2 G,,2 | D,,2 G,,2 G,,2 | A,,,2 F,,2 F,,2 | A,,,2 E,,2 E,,2 | D,,2 .F,,2 .F,,2 | %83
 .F,,2 z4 |!p! D,,2 F,,2 F,,2 | A,,,2 F,,2 F,,2 | _D,,2 E,,2 E,,2 | A,,,2 E,,2 E,,2 | %88
 A,,,2 E,,2 E,,2 | _D,,2 E,,2 E,,2 | D,,2 F,,2 F,,2 | A,,,2 F,,2 E,,2 | D,,2 F,,2 F,,2 | %93
 A,,,2 F,,2 F,,2 | B,,,2 G,,2 G,,2 | G,,,2 D,,2 D,,2 | A,,,2 A,,2 F,,2 | A,,,2 G,,2 E,,2 | %98
 .D,,2 .F,,2 ._D,,2 | .!^!D,,2 z4 |] %100

